!!!CDT:
!!!PTL: Musiche di Sigismondo d' India 
!!!PPP: Milan
!!!PPR: Simon Tini & Filippo Lomazzo
!!!PDT: 1609
!!!RISM: I 24
!!!rime:
!!!AGN: Madrigal
!!!SCT: Tsg19107c
!!!SCA: Tsg19107c
!!!voices:
!!!COM: D'India, Sigismondo
!!!OTL: Ma che? squallido e scuro anco mi piaci
**kern	**fb	**kern	**text
*part2	*part2	*part1	*part1
*staff2	*staff2	*staff1	*staff1
*I"[Basso continuo]	*	*I"[Canto]	*
*I'Bc	*	*I'C	*
*oclefF4	*	*oclefG2	*
*clefF4	*	*clefG2	*
*k[b-]	*	*k[b-]	*
*F:	*	*F:	*
*omet(C)	*	*omet(C)	*
*M4/4	*	*M4/4	*
=1	=1	=1	=1
1C	.	4r	.
.	.	4cc	Ma
.	.	2e	che?
=2	=2	=2	=2
1C	-	2e-X	squal-
.	.	4.d	-li-
.	.	8d	-d'e o-
=3	=3	=3	=3
1BBnX	.	4d	-scu-
.	.	2g	-ro an-
.	.	8g	-co
.	.	8d	mi
=4	=4	=4	=4
2C	.	2e	pia-
(2AA	#	2e	-ci;
=5	=5	=5	=5
2AA)	#	2r	.
2FF	.	4f	A-
.	.	8e	-ni-
.	.	8d	-ma
=6	=6	=6	=6
2C	4:3	8e	bel-
.	.	8e	-la,
.	.	8e	se
.	.	8f	qui in-
2GG	.	16gL	-tor-
.	.	8.fJ	.
.	.	16gL	.
.	.	8e	.
.	.	16eJ	.
=7	=7	=7	=7
1D	#:11	8fL	.
.	.	8dJ	.
.	.	8eL	.
.	.	8fJ	.
.	.	8gL	.
.	.	8eJ	.
.	.	8aL	.
.	.	8gJ	.
=8	=8	=8	=8
2D	#:11	4.f#X	.
.	.	8g	-no
2DD	11:#	2a	gi-
=9	=9	=9	=9
1GG	.	1g	-re,
=10	=10	=10	=10
1GG	-	4r	.
.	.	2g	S'o-
.	.	8g	-di il
.	.	8a	mio
=11	=11	=11	=11
2G	.	4b-y	pian-
.	.	4a	-to, e
2D	4:3	4a	le
.	.	4b-y	mie
=12	=12	=12	=12
(4G	.	4.b-y	vo-
4G)	6	.	.
.	.	8cc	-glie au-
2F	4:3	4cc	-da-
.	.	4cc	-ci,
=13	=13	=13	=13
(2BB-y	.	4r	.
.	.	4dd	Per-
4BB-y)	6	[2dd	-do-
4C	4:3	.	.
=14	=14	=14	=14
1D	.	2dd]	.
.	.	2a	-na il
=15	=15	=15	=15
1GG	.	2.g	fur-
.	.	4g	-to, e'l
=16	=16	=16	=16
2G	.	4g	te-
.	.	4a	-me-
[2D	6	16b-yL	-ra-
.	.	16f	.
.	.	16g	.
.	.	16aJ	.
.	.	16b-yL	.
.	.	16cc	.
.	.	16dd	.
.	.	16eeJ	.
=17	=17	=17	=17
4D]	.	4.ff	.
4F	.	.	.
.	.	8b-y	-rio ar-
2FF	11:10	2cc	-di-
=18	=18	=18	=18
1BB-y	.	1b-y	-re.
=19	=19	=19	=19
1D	.	2r	.
.	.	4f	Da
.	.	4f	le
=20	=20	=20	=20
1D	.	2.f	pal-
.	.	8e	-li-
.	.	8e	-de
=21	=21	=21	=21
2AA	11:10	4e	la-
.	.	4f	-bra i
2D	.	4.f	fred-
.	.	8g	-di
=22	=22	=22	=22
1C	4:3	4g	ba-
.	.	4g	-ci,
.	.	4r	.
.	.	8g	Che
.	.	8g	sì
=23	=23	=23	=23
2C	.	4g	cal-
.	.	8a	-di
.	.	8b-y	spe-
2AA	6	8cc	-rai,
.	.	8b-y	vò
.	.	[4a	pur
=24	=24	=24	=24
1C	3:4:3	4a]	.
.	.	4g	ra-
.	.	2g	-pi-
=25	=25	=25	=25
1FF	.	1f	-re.
=26	=26	=26	=26
2.BB-y	.	2r	.
.	.	4dd	Par-
8BB-yL	.	8dd	-te
8BB-yJ	.	8dd	tor-
=27	=27	=27	=27
2.BB-y	.	2.dd	-rò
4BB-y	.	4ff	di
=28	=28	=28	=28
4BB-y	.	4ff	sue
4C	.	4ee	ra-
4D	.	4.dd	-gio-
4E	.	.	.
.	.	8cc	-ni a
=29	=29	=29	=29
2F	4:3	2cc	mor-
2FF	.	4cc	-te,
.	.	4dd	Ba-
=30	=30	=30	=30
4GG	.	4dd	-cian-
4AA	.	4cc	-do
4BB-y	6	4.b-y	que-
4C	.	.	.
.	.	8a	-ste
=31	=31	=31	=31
1D	4:3	1a	la-
=32	=32	=32	=32
(1G	-	(1b-y	-bra es-
=33	=33	=33	=33
2G)	#	1bnX)	.
2F	(natural)	.	.
=34	=34	=34	=34
2E	6	[1cc	-san-
2D	.	.	.
=35	=35	=35	=35
2C	.	(1cc]	.
2BB-y	.	.	.
=36	=36	=36	=36
[1AA	#:11:#	2cc#X)	.
.	.	2f	-gui e
=37	=37	=37	=37
1AA]	.	1e	smor-
=38	=38	=38	=38
1D	.	1d	-te,
=39	=39	=39	=39
1BBnX	.	1r	.
=40	=40	=40	=40
2C	.	(1e-X	es-
2BB-i	.	.	.
=41	=41	=41	=41
2AA	.	1enX)	.
2GG	.	.	.
=42	=42	=42	=42
2FF	.	(1f	-san-
2EE	.	.	.
=43	=43	=43	=43
1DD	.	2f#X)	.
.	.	2b-y	-gui e
=44	=44	=44	=44
1DD	#:11	1a	smor-
=45	=45	=45	=45
1GGl	11:#	1gl	-te.
==	==	==	==
*-	*-	*-	*-
!!!system-decoration: [*]
!!!RDF**kern: i = editorial accidental
!!!RDF**kern: l = terminal long
!!!ENC: Emiliano Ricciardi
!!!END:
!!!EED: Ricciardi, Emiliano
!!!EEV: 2020/02/23
!!!YEC: Copyright 2018 Emiliano Ricciardi, All Rights Reserved
!!!ONB: Translated from MusicXML on 2020/02/23
!!@@BEGIN:	VERSEDATA
!!@CATALOGNUM:	Tsg19107
!!@LAST_MODIFIED: 2020/07/12
!!@TITLE:		Ma che? squallido e scuro anco mi piaci
!!@CANTO:		XIX
!!@OTTAVA:	107
!!@MANUSRC:	G-Al, G-Au, G-Br<sub>2</sub>, G-Es<sub>1</sub>, G-Es<sub>2</sub>, G-Es<sub>3</sub>, G-F, G-Fr, G-Fr<sub>1</sub>, G-Fr<sub>2</sub>, G-Mc<sub>1</sub>, G-Mr, G-Mt, G-N
!!@PRINTSRC:	G-1580CM, G-1581B, G-1581CV, G-1581R, G-1581MR, G-1581P, G-1581V, G-1581V<sub>bis</sub>, G-1582C, G-1582M, G-1582MC, G-1582P, G-1582SC, G-1582SC<sub>bis</sub>, G-1583S, G-1584O, G-1584S, G-1585C, G-1585S, G-1588S, G-1589S, G-1590B, G-1590S, G-1592S, G-1593S, G-1594C, G-1595C, G-1597C, G-1598C, G-1599C, G-1600C, G-1600S, G-1601C, G-1601R, G-1602C, G-1604C, G-1604Cl, G-1604F, G-1604P, G-1606B, G-1606B<sub>bis</sub>, G-1606L, G-1607ZR, G-1608DP, G-1609GC, G-1610M, G-1611S, G-1611V, G-1612P, G-1613M, G-1613P, G-1613V, G-1615P, G-1616M, G-1617P, G-1619B, G-1619V, G-1620M, G-1620S, G-1621R, G-1624I, G-1624MT, G-1625C, G-1625S, G-1625SS, G-1626C, G-1626Co, G-1627M, G-1628T, G-1628Tu, G-1630L, G-1630T, G-1632FT, G-1639CF, G-1642M, G-1643I, G-1644P, G-1644S
!!@@BEGIN:	VERSES
!!@ABOUTIT:
!!@ABOUTEN:
!!@EDITOR:	Angelo Solerti
!!@EDITION_TITLE: Gerusalemme liberata. Poema eroico di Torquato Tasso. Edizione critica sui manoscritti e le prime stampe.
!!@EDITION_LOC:	Florence
!!@EDITION_PUB:	G. Barbera
!!@EDITION_DATE:  1895
!!@EDITION_VOL:
!!@EDITION_PAGE:
!!@TRANSLATOR:	Emiliano Ricciardi and Amyrose McCue Gill
!!@VERSE:
!!	Ma che? squallido e scuro anco mi piaci;
!!	Anima bella, se quinci entro gire,
!!	S’odi il mio pianto, alle mie voglie audaci
!!	Perdona il furto, e ’l temerario ardire.
!!	Dalle pallide labbra i freddi baci,
!!	Che più caldi sperai, vuò pur rapire.
!!	Parte torrò di sue ragioni a morte,
!!	Baciando queste labbra esangui e smorte.
!!@TVERSE:
!!	But what [am I saying]? Dismal and dark still you please me;
!!	Beautiful soul, if there within it turns,
!!	If you hear my lament, for my daring desires
!!	Pardon the theft, and the reckless courage.
!!	From pale lips even cold kisses,
!!	Which I hoped [were] warmer, I wish to steal.
!!	I will take some of what belongs to her from death,
!!	Kissing these lips, bloodless and lifeless.
!!@@END:		VERSES
!!@OTHER_CRIT_ED:  Torquato Tasso, <i>Gerusalemme liberata</i>, ed. Lanfranco Caretti, 2 vols. (Bari: Laterza, 1967).
!!@ATTRIBUTION_ABOUT:
!!@DATING:	mid-1560s through 1570s
!!@DEDICATEE:	Duke Alfonso II d'Este
!!@COMMENTARY:
!!@@END:		VERSEDATA
!!@@BEGIN: SETTING
!!@CATALOGNUM:	Tsg19107c
!!@CANTO:		XIX
!!@OTTAVA:	107
!!@TITLE:	Ma che? squallido e scuro anco mi piaci
!!@SETTINGTITLE: Ma che, squallid'e oscuro anco mi piaci
!!@COMPOSER:	D'India, Sigismondo
!!@PARTS:		2 of 2
!!@PRINCEPSTITLE:	Musiche di Sigismondo d' India 
!!@PRINCEPSLOC:	Milan
!!@NORMLOC:	Milan
!!@NORMPUB:	Simon Tini & Filippo Lomazzo
!!@NORMPUBSHORT:	Tini & Lomazzo
!!@PRINCEPSPUB:	Tini & Lomazzo
!!@PRINCEPSYEAR:	1609
!!@PRINCEPSRISM:	I 24
!!@OVOICES:	1+bc
!!@EXTANTVOICES:	1+bc
!!@OMENSURATION:	C
!!@OCLEFS:	G2,F4
!!@OTIME:		
!!@OKEYSIG:	b-
!!@FINAL:		G
!!@TIMPEDITOR:	Ricciardi, Emiliano
!!@REPRINTS:	
!!@@END: SETTING
